dist/intermediate-svg/sales2.svg

<?xml version="1.0" encoding="utf-8"?><svg width="24" height="23.04" fill="none" xmlns="http://www.w3.org/2000/svg" viewBox="0 0 25 24"><g clip-path="url(#ezclip0_8440:7381)" fill-rule="evenodd" clip-rule="evenodd"><path d="M1.58473 16.5608C2.56104 15.5844 4.14395 15.5844 5.12026 16.5608L7.29183 18.7323C8.26814 19.7086 8.26814 21.2916 7.29183 22.2679L6.35249 23.2072L0.645386 17.5001L1.58473 16.5608ZM4.41315 17.2679C3.82737 16.6821 2.87762 16.6821 2.29183 17.2679L2.0596 17.5001L6.35249 21.793L6.58473 21.5608C7.17051 20.975 7.17051 20.0252 6.58473 19.4394L4.41315 17.2679Z" fill="#333"/><path d="M20.099 11.1691C20.8848 10.6977 21.8998 10.8965 22.4497 11.6296C23.0582 12.441 22.8709 13.5955 22.037 14.1729L17.1508 17.5556C16.7327 17.845 16.2363 18.0001 15.7278 18.0001H10.181C9.78315 18.0001 9.40162 18.1581 9.12032 18.4394L7.7061 19.8537L6.999 19.1465L8.41321 17.7323C8.88205 17.2635 9.51793 17.0001 10.181 17.0001H15.7278C16.0329 17.0001 16.3308 16.9071 16.5816 16.7334L21.4678 13.3507C21.8353 13.0962 21.9179 12.5873 21.6497 12.2296C21.4073 11.9064 20.9599 11.8188 20.6135 12.0266L16.7486 14.3455C16.505 15.0189 15.86 15.5001 15.1025 15.5001H12.3525V14.5001H15.1025C15.5168 14.5001 15.8525 14.1643 15.8525 13.7501C15.8525 13.3359 15.5168 13.0001 15.1025 13.0001H12.3276L8.49904 12.6172C7.94695 12.562 7.40948 12.8161 7.10171 13.2777L4.76857 16.7774L3.93652 16.2227L6.26966 12.723C6.78261 11.9536 7.6784 11.5302 8.59854 11.6222L12.3775 12.0001H15.1025C15.8676 12.0001 16.518 12.491 16.7559 13.175L20.099 11.1691Z" fill="#333"/><path d="M6.76628 3.8288C7.03225 3.61602 7.36271 3.5001 7.70332 3.5001H13.1165C13.3493 3.5001 13.579 3.55432 13.7873 3.65846L17.5126 5.5211C17.5337 5.53168 17.5556 5.54075 17.5781 5.54823L19.8269 6.29783C20.4394 6.502 20.8525 7.07521 20.8525 7.72086V9.19149L18.4146 9.49624L18.2905 8.50396L19.8525 8.30871V7.72086C19.8525 7.50564 19.7148 7.31457 19.5107 7.24652L17.2618 6.49691C17.1945 6.47447 17.1289 6.44727 17.0654 6.41553L13.3401 4.55289C13.2706 4.51817 13.1941 4.5001 13.1165 4.5001H7.70332C7.58978 4.5001 7.47963 4.53874 7.39097 4.60966L5.30416 6.27912C5.16598 6.38966 5.00933 6.47488 4.84145 6.53084L4.19443 6.74652C3.99025 6.81457 3.85254 7.00564 3.85254 7.22086V8.5001H5.85254V9.5001H2.85254V7.22086C2.85254 6.57521 3.26568 6.002 3.8782 5.79783L4.52523 5.58216C4.58118 5.5635 4.6334 5.5351 4.67946 5.49825L6.76628 3.8288ZM14.3525 9.5001H9.35254V8.5001H14.3525V9.5001Z" fill="#0094FF"/><path d="M7.35254 10.0001C7.90482 10.0001 8.35254 9.55238 8.35254 9.0001 8.35254 8.44781 7.90482 8.0001 7.35254 8.0001 6.80025 8.0001 6.35254 8.44781 6.35254 9.0001 6.35254 9.55238 6.80025 10.0001 7.35254 10.0001zM7.35254 11.0001C8.45711 11.0001 9.35254 10.1047 9.35254 9.0001 9.35254 7.89553 8.45711 7.0001 7.35254 7.0001 6.24797 7.0001 5.35254 7.89553 5.35254 9.0001 5.35254 10.1047 6.24797 11.0001 7.35254 11.0001zM16.3525 10.0001C16.9048 10.0001 17.3525 9.55238 17.3525 9.0001 17.3525 8.44781 16.9048 8.0001 16.3525 8.0001 15.8003 8.0001 15.3525 8.44781 15.3525 9.0001 15.3525 9.55238 15.8003 10.0001 16.3525 10.0001zM16.3525 11.0001C17.4571 11.0001 18.3525 10.1047 18.3525 9.0001 18.3525 7.89553 17.4571 7.0001 16.3525 7.0001 15.248 7.0001 14.3525 7.89553 14.3525 9.0001 14.3525 10.1047 15.248 11.0001 16.3525 11.0001z" fill="#333"/></g><defs><clipPath id="ezclip0_8440:7381"><path fill="#fff" transform="translate(0.352539)" d="M0 0H24V24H0z"/></clipPath></defs></svg>

<?xml version="1.0" encoding="utf-8"?><svg width="24" height="23.04" fill="none" xmlns="http://www.w3.org/2000/svg" viewBox="0 0 25 24"><g clip-path="url(#fwclip0_8440:7381)" fill-rule="evenodd" clip-rule="evenodd"><path d="M1.585 16.56a2.5 2.5 0 013.535 0l2.172 2.172a2.5 2.5 0 010 3.536l-.94.94L.645 17.5l.94-.94zm2.828.708a1.5 1.5 0 00-2.121 0l-.232.232 4.292 4.293.233-.232a1.5 1.5 0 000-2.122l-2.172-2.171z" fill="#333"/><path d="M20.099 11.17a1.788 1.788 0 011.938 3.003l-4.886 3.383a2.5 2.5 0 01-1.423.444H10.18a1.5 1.5 0 00-1.06.44l-1.415 1.414L7 19.147l1.414-1.415A2.5 2.5 0 0110.181 17h5.547a1.5 1.5 0 00.854-.267l4.886-3.382a.788.788 0 00-.855-1.324l-3.864 2.319a1.75 1.75 0 01-1.646 1.154h-2.75v-1h2.75a.75.75 0 100-1.5h-2.775l-3.829-.383a1.5 1.5 0 00-1.397.66l-2.333 3.5-.832-.554 2.333-3.5a2.5 2.5 0 012.329-1.1l3.778.377h2.725c.766 0 1.416.491 1.654 1.175l3.343-2.006z" fill="#333"/><path d="M6.766 3.829a1.5 1.5 0 01.937-.329h5.413a1.5 1.5 0 01.671.158l3.726 1.863c.02.01.043.02.065.027l2.249.75a1.5 1.5 0 011.025 1.423v1.47l-2.437.305-.124-.992 1.561-.195V7.72a.5.5 0 00-.341-.474l-2.25-.75a1.501 1.501 0 01-.196-.081L13.34 4.553a.5.5 0 00-.223-.053H7.703a.5.5 0 00-.312.11L5.304 6.28a1.5 1.5 0 01-.463.25l-.647.217a.5.5 0 00-.341.474V8.5h2v1h-3V7.22a1.5 1.5 0 011.025-1.423l.647-.216a.5.5 0 00.154-.084l2.087-1.67zM14.352 9.5h-5v-1h5v1z" fill="#0094FF"/><path d="M7.353 10a1 1 0 100-2 1 1 0 000 2zm0 1a2 2 0 100-4 2 2 0 000 4zM16.352 10a1 1 0 100-2 1 1 0 000 2zm0 1a2 2 0 100-4 2 2 0 000 4z" fill="#333"/></g><defs><clipPath id="fwclip0_8440:7381"><path fill="#fff" transform="translate(.353)" d="M0 0h24v24H0z"/></clipPath></defs></svg>
